X: 35621
T: Sail Around The Rocks
R: slip jig
M: 9/8
K: Gmajor
GAG G2A B2d|GAG G2A AFD|GAG G2A B2G|GAG G2A cBA:|
gag g2e d2f|gag g2e dBG|gag g2e ddB|GAG G2A cBA:|

